resources/images/kalendarz.svg

<svg width="24" height="24" viewBox="0 0 24 24" fill="none" xmlns="http://www.w3.org/2000/svg">
<g clip-path="url(#clip0_1742_18)">
<path d="M13.0781 17.0625C13.0781 18.0964 13.9193 18.9375 14.9531 18.9375H17.1562C18.1901 18.9375 19.0312 18.0964 19.0312 17.0625V14.8594C19.0312 13.8255 18.1901 12.9844 17.1562 12.9844H14.9531C13.9193 12.9844 13.0781 13.8255 13.0781 14.8594V17.0625ZM14.9531 14.8594H17.1562L17.1574 17.0625C17.1574 17.0625 17.1571 17.0625 17.1562 17.0625H14.9531V14.8594Z" fill="#0296D8"/>
<path d="M18.0938 10.7812C18.6115 10.7812 19.0312 10.3615 19.0312 9.84375C19.0312 9.32598 18.6115 8.90625 18.0938 8.90625C17.576 8.90625 17.1562 9.32598 17.1562 9.84375C17.1562 10.3615 17.576 10.7812 18.0938 10.7812Z" fill="#0296D8"/>
<path d="M14.0156 10.7812C14.5334 10.7812 14.9531 10.3615 14.9531 9.84375C14.9531 9.32598 14.5334 8.90625 14.0156 8.90625C13.4979 8.90625 13.0781 9.32598 13.0781 9.84375C13.0781 10.3615 13.4979 10.7812 14.0156 10.7812Z" fill="#0296D8"/>
<path d="M23.0625 16.5C23.5803 16.5 24 16.0803 24 15.5625V5.625C24 3.55725 22.3177 1.875 20.25 1.875H19.0312V0.9375C19.0312 0.419719 18.6115 0 18.0938 0C17.576 0 17.1562 0.419719 17.1562 0.9375V1.875H12.8906V0.9375C12.8906 0.419719 12.4709 0 11.9531 0C11.4353 0 11.0156 0.419719 11.0156 0.9375V1.875H6.79688V0.9375C6.79688 0.419719 6.37716 0 5.85938 0C5.34159 0 4.92188 0.419719 4.92188 0.9375V1.875H3.75C1.68225 1.875 0 3.55725 0 5.625V20.25C0 22.3177 1.68225 24 3.75 24H20.25C22.3177 24 24 22.3177 24 20.25C24 19.7322 23.5803 19.3125 23.0625 19.3125C22.5447 19.3125 22.125 19.7322 22.125 20.25C22.125 21.2839 21.2839 22.125 20.25 22.125H3.75C2.71613 22.125 1.875 21.2839 1.875 20.25V5.625C1.875 4.59113 2.71613 3.75 3.75 3.75H4.92188V4.6875C4.92188 5.20528 5.34159 5.625 5.85938 5.625C6.37716 5.625 6.79688 5.20528 6.79688 4.6875V3.75H11.0156V4.6875C11.0156 5.20528 11.4353 5.625 11.9531 5.625C12.4709 5.625 12.8906 5.20528 12.8906 4.6875V3.75H17.1562V4.6875C17.1562 5.20528 17.576 5.625 18.0938 5.625C18.6115 5.625 19.0312 5.20528 19.0312 4.6875V3.75H20.25C21.2839 3.75 22.125 4.59113 22.125 5.625V15.5625C22.125 16.0803 22.5447 16.5 23.0625 16.5Z" fill="#0296D8"/>
<path d="M5.85938 18.9375C6.37714 18.9375 6.79688 18.5178 6.79688 18C6.79688 17.4822 6.37714 17.0625 5.85938 17.0625C5.34161 17.0625 4.92188 17.4822 4.92188 18C4.92188 18.5178 5.34161 18.9375 5.85938 18.9375Z" fill="#0296D8"/>
<path d="M5.85938 10.7812C6.37714 10.7812 6.79688 10.3615 6.79688 9.84375C6.79688 9.32598 6.37714 8.90625 5.85938 8.90625C5.34161 8.90625 4.92188 9.32598 4.92188 9.84375C4.92188 10.3615 5.34161 10.7812 5.85938 10.7812Z" fill="#0296D8"/>
<path d="M5.85938 14.8594C6.37714 14.8594 6.79688 14.4396 6.79688 13.9219C6.79688 13.4041 6.37714 12.9844 5.85938 12.9844C5.34161 12.9844 4.92188 13.4041 4.92188 13.9219C4.92188 14.4396 5.34161 14.8594 5.85938 14.8594Z" fill="#0296D8"/>
<path d="M9.9375 14.8594C10.4553 14.8594 10.875 14.4396 10.875 13.9219C10.875 13.4041 10.4553 12.9844 9.9375 12.9844C9.41973 12.9844 9 13.4041 9 13.9219C9 14.4396 9.41973 14.8594 9.9375 14.8594Z" fill="#0296D8"/>
<path d="M9.9375 10.7812C10.4553 10.7812 10.875 10.3615 10.875 9.84375C10.875 9.32598 10.4553 8.90625 9.9375 8.90625C9.41973 8.90625 9 9.32598 9 9.84375C9 10.3615 9.41973 10.7812 9.9375 10.7812Z" fill="#0296D8"/>
<path d="M9.9375 18.9375C10.4553 18.9375 10.875 18.5178 10.875 18C10.875 17.4822 10.4553 17.0625 9.9375 17.0625C9.41973 17.0625 9 17.4822 9 18C9 18.5178 9.41973 18.9375 9.9375 18.9375Z" fill="#0296D8"/>
</g>
<defs>
<clipPath id="clip0_1742_18">
<rect width="24" height="24" fill="white"/>
</clipPath>
</defs>
</svg>

<svg width="24" height="24" fill="none" xmlns="http://www.w3.org/2000/svg"><g clip-path="url(#clip0_1742_18)" fill="#0296D8"><path d="M13.078 17.063c0 1.033.841 1.875 1.875 1.875h2.203a1.877 1.877 0 0 0 1.875-1.875v-2.204a1.877 1.877 0 0 0-1.875-1.875h-2.203a1.877 1.877 0 0 0-1.875 1.875v2.204Zm1.875-2.204h2.203l.001 2.204h-2.204v-2.204ZM18.094 10.781a.937.937 0 1 0 0-1.875.937.937 0 0 0 0 1.875ZM14.016 10.781a.937.937 0 1 0 0-1.875.937.937 0 0 0 0 1.875Z"/><path d="M23.063 16.5c.517 0 .937-.42.937-.938V5.626a3.754 3.754 0 0 0-3.75-3.75h-1.219V.937a.937.937 0 1 0-1.875 0v.938h-4.265V.937a.937.937 0 1 0-1.875 0v.938h-4.22V.937a.937.937 0 1 0-1.874 0v.938H3.75A3.754 3.754 0 0 0 0 5.625V20.25A3.754 3.754 0 0 0 3.75 24h16.5A3.754 3.754 0 0 0 24 20.25a.937.937 0 1 0-1.875 0 1.877 1.877 0 0 1-1.875 1.875H3.75a1.877 1.877 0 0 1-1.875-1.875V5.625c0-1.034.841-1.875 1.875-1.875h1.172v.938a.937.937 0 1 0 1.875 0V3.75h4.219v.938a.937.937 0 1 0 1.875 0V3.75h4.265v.938a.938.938 0 0 0 1.875 0V3.75h1.219c1.034 0 1.875.841 1.875 1.875v9.938c0 .517.42.937.938.937Z"/><path d="M5.86 18.938a.937.937 0 1 0 0-1.875.937.937 0 0 0 0 1.875ZM5.86 10.781a.937.937 0 1 0 0-1.875.937.937 0 0 0 0 1.875ZM5.86 14.86a.938.938 0 1 0 0-1.876.938.938 0 0 0 0 1.875ZM9.938 14.86a.938.938 0 1 0 0-1.876.938.938 0 0 0 0 1.875ZM9.938 10.781a.937.937 0 1 0 0-1.875.937.937 0 0 0 0 1.875ZM9.938 18.938a.937.937 0 1 0 0-1.875.937.937 0 0 0 0 1.875Z"/></g></svg>
